X:4975
T:Paddy's Return
T:Frost is all over, The
O:england
R:double jig
M:6/8
L:1/8
K:D
B|AFD DFA|BdB BAF|ABA F2D|FEE E2B|
AFD DFA|BdB BAF|ABA F2E|FDD D2:|
|:e|fdd dcd|fdd d2e|~f3 def|~g3 efg|
fed B2d|A2d F2G|ABA F2E|FDD D2:|


